X: 1
T: The Stack Of Barley
R: hornpipe
M: 4/4
L: 1/8
K: Gmaj
|:gf|efed BedB|AGEG AcBA|~G3A AGBd|eAAG A2gf|
efed BedB|AGEG AcBA|~G3F GBdA|1B2G2 G2:|2B2G2 G3A||
|:(3Bcd ef g2fg|afgf edBd|(3gfe fd edBd|eAAG A2fg|
[1~a3f gedB|cBAG AcBA|~G3F GBdA|B2G2 G3A:|
[2~a3g bgdB|cBAG AcBA|~G3F GBdA|B2G2 G2|


Tune 2224	Setting 15595

